X:92
T:Polonäs efter Pehr Andersson Bild 31 nr 92
S:efter Pehr Andersson
B:Spelmansbok Ma 1 efter Pehr Andersson daterad 1731
B:FMK - katalog Ma1 bild 31
O:Måstorp, Närke
R:Slängpolska
M:3/4
L:1/8
K:D
Fd Ec dD | Fd Ec dD | de/f/ gf ed | ce AG FD |
Fd Ec dD | Fd Ec dD | Bd ge fd | AB/c/ d4 ::
Aa B^g aA | ca B^g aA | Bd d2 A2 | BB/c/ dc/B/ A2 |
Bc de fg | ed/c/ d4 :|

